svg/blobs-icons/no-decorations/flask.svg

<svg xmlns="http://www.w3.org/2000/svg" xmlns:xlink="http://www.w3.org/1999/xlink" preserveAspectRatio="xMidYMid" width="142" height="216" viewBox="0 0 142 216"><defs><style>.cls-3{fill:#142a3b}.cls-4{fill:#060606;opacity:.35}.cls-5{fill:#fbb713}.cls-6{fill:#ff3a2f}.cls-7{fill:#ededed}</style></defs><g id="group-15svg"><path d="M62.589.003s16.506.0 16.506.0C86.308.003 91.515 6.907 89.533 13.842L85.558 27.747C85.426 28.183 85.455 28.627 85.455 29.071H85.369s-29.069.0-29.069.0S56.224 29.071 56.224 29.071C56.224 28.627 56.243 28.183 56.121 27.747L52.15 13.839C50.17 6.905 55.377.003 62.589.003z" id="path-1" class="cls-3" fill-rule="evenodd"/><path d="M81.724.324C82.191 2.118 82.253 4.051 81.695 6.005 81.695 6.005 79.899 13.79 78.666 18.229 78.173 20.003 76.568 21.234 74.726 21.234H54.261S56.12 27.747 56.12 27.747C56.243 28.183 56.224 28.628 56.224 29.071H56.3s29.069.0 29.069.0S85.455 29.071 85.455 29.071C85.455 28.628 85.426 28.183 85.558 27.747L89.533 13.842C91.264 7.785 87.509 1.755 81.724.324z" id="path-2" class="cls-4" fill-rule="evenodd"/><path d="M116.31 90.397c-7.914-6.905-17.329-12.164-27.83-15.073V38.762s9.69.0 9.69.0c2.688.0 4.845-2.167 4.845-4.846.0-2.678-2.157-4.844-4.845-4.844H40.03c-2.668.0-4.845 2.166-4.845 4.844.0 2.679 2.177 4.846 4.845 4.846h9.69s0 36.562.0 36.562c-18.093 5.015-40.097 32.087-38.925 31.902C3.993 118.104-.003 130.918-.003 144.693c0 39.126 31.718 70.842 70.845 70.842 39.126.0 70.844-31.716 70.844-70.842C141.686 122.882 131.813 103.392 116.31 90.397z" id="path-3" class="cls-5" fill-rule="evenodd"/><path d="M138.42 123.476C130.168 125.731 121.931 126.707 113.746 126.707 98.927 126.707 84.288 123.848 69.914 121.028 47.524 116.643 26.246 112.645 5.014 118.71 1.809 126.756-.003 135.502-.003 144.693c0 39.126 31.718 70.842 70.845 70.842 39.126.0 70.844-31.716 70.844-70.842C141.686 137.296 140.526 130.177 138.42 123.476z" id="path-4" class="cls-6" fill-rule="evenodd"/><path d="M48.55 199.891C48.159 199.891 47.762 199.827 47.371 199.692c-19.74-6.852-34.59-23.02-39.723-43.25C7.161 154.519 8.323 152.566 10.246 152.077 12.183 151.591 14.124 152.755 14.612 154.675c4.536 17.881 17.663 32.172 35.116 38.228C51.602 193.554 52.595 195.601 51.944 197.477 51.428 198.96 50.037 199.891 48.55 199.891z" id="path-5" class="cls-7" fill-rule="evenodd"/><path d="M116.31 90.397c-7.914-6.905-17.329-12.164-27.83-15.073V38.761s9.69.0 9.69.0c2.688.0 4.845-2.16500000000001 4.845-4.844.0-2.678-2.157-4.845-4.845-4.845H82.495c2.687.0 4.845 2.167 4.845 4.845.0 2.679-2.158 4.844-4.845 4.844h-9.69s0 36.563.0 36.563C83.306 78.233 92.72 83.492 100.635 90.397c15.502 12.995 25.375 32.485 25.375 54.296.0 36.474-27.572 66.482-63.006 70.386C65.58 215.362 68.19 215.535 70.842 215.535c39.126.0 70.844-31.716 70.844-70.842C141.686 122.882 131.813 103.392 116.31 90.397z" id="path-6" class="cls-4" fill-rule="evenodd"/><path d="M138.42 123.476C130.167 125.731 121.931 126.706 113.746 126.706 98.927 126.706 84.288 123.848 69.914 121.029c-22.39-4.386-43.668-8.384-64.9-2.319C4.861 119.094 4.752 119.499 4.606 119.885c16.214-1.372 32.601 1.726 49.633 5.062C68.612 127.767 83.251 130.624 98.07 130.624 106.256 130.624 114.492 129.649 122.745 127.395 124.851 134.096 126.01 141.214 126.01 148.612c0 30.351-19.123 56.169-45.948 66.256C114.821 210.34 141.686 180.687 141.686 144.693 141.686 137.295 140.526 130.177 138.42 123.476z" id="path-7" class="cls-4" fill-rule="evenodd"/><path d="M29.823 109.89C28.152 109.89 26.639 108.716 26.276 107.04 25.27 102.381 43.792 84.585 55.88 79.47V54.147c0-1.983 1.608-3.592 3.592-3.592s3.593 1.609 3.593 3.592V84.731S60.432 85.46 60.432 85.46C49.456 88.501 35.343 104.503 33.194 107.535 32.76 108.719 31.714 109.637 30.379 109.845 30.194 109.876 30.007 109.89 29.823 109.89z" id="path-8" class="cls-7" fill-rule="evenodd"/></g></svg>

<svg xmlns="http://www.w3.org/2000/svg" xmlns:xlink="http://www.w3.org/1999/xlink" preserveAspectRatio="xMidYMid" width="142" height="216" viewBox="0 0 142 216">
  <defs>
    <style>

      .cls-3 {
        fill: #142a3b;
      }

      .cls-4 {
        fill: #060606;
        opacity: 0.35;
      }

      .cls-5 {
        fill: #fbb713;
      }

      .cls-6 {
        fill: #ff3a2f;
      }

      .cls-7 {
        fill: #ededed;
      }
    </style>
  </defs>
  <g id="group-15svg">
    <path d="M62.589,0.003 C62.589,0.003 79.095,0.003 79.095,0.003 C86.308,0.003 91.515,6.907 89.533,13.842 C89.533,13.842 85.558,27.747 85.558,27.747 C85.426,28.183 85.455,28.627 85.455,29.071 C85.455,29.071 85.369,29.071 85.369,29.071 C85.369,29.071 56.300,29.071 56.300,29.071 C56.300,29.071 56.224,29.071 56.224,29.071 C56.224,28.627 56.243,28.183 56.121,27.747 C56.121,27.747 52.150,13.839 52.150,13.839 C50.170,6.905 55.377,0.003 62.589,0.003 Z" id="path-1" class="cls-3" fill-rule="evenodd"/>
    <path d="M81.724,0.324 C82.191,2.118 82.253,4.051 81.695,6.005 C81.695,6.005 79.899,13.790 78.666,18.229 C78.173,20.003 76.568,21.234 74.726,21.234 C74.726,21.234 54.261,21.234 54.261,21.234 C54.261,21.234 56.120,27.747 56.120,27.747 C56.243,28.183 56.224,28.628 56.224,29.071 C56.224,29.071 56.300,29.071 56.300,29.071 C56.300,29.071 85.369,29.071 85.369,29.071 C85.369,29.071 85.455,29.071 85.455,29.071 C85.455,28.628 85.426,28.183 85.558,27.747 C85.558,27.747 89.533,13.842 89.533,13.842 C91.264,7.785 87.509,1.755 81.724,0.324 Z" id="path-2" class="cls-4" fill-rule="evenodd"/>
    <path d="M116.310,90.397 C108.396,83.492 98.981,78.233 88.480,75.324 C88.480,75.324 88.480,38.762 88.480,38.762 C88.480,38.762 98.170,38.762 98.170,38.762 C100.858,38.762 103.015,36.595 103.015,33.916 C103.015,31.238 100.858,29.072 98.170,29.072 C98.170,29.072 40.030,29.072 40.030,29.072 C37.362,29.072 35.185,31.238 35.185,33.916 C35.185,36.595 37.362,38.762 40.030,38.762 C40.030,38.762 49.720,38.762 49.720,38.762 C49.720,38.762 49.720,75.324 49.720,75.324 C31.627,80.339 9.623,107.411 10.795,107.226 C3.993,118.104 -0.003,130.918 -0.003,144.693 C-0.003,183.819 31.715,215.535 70.842,215.535 C109.968,215.535 141.686,183.819 141.686,144.693 C141.686,122.882 131.813,103.392 116.310,90.397 Z" id="path-3" class="cls-5" fill-rule="evenodd"/>
    <path d="M138.420,123.476 C130.168,125.731 121.931,126.707 113.746,126.707 C98.927,126.707 84.288,123.848 69.914,121.028 C47.524,116.643 26.246,112.645 5.014,118.710 C1.809,126.756 -0.003,135.502 -0.003,144.693 C-0.003,183.819 31.715,215.535 70.842,215.535 C109.968,215.535 141.686,183.819 141.686,144.693 C141.686,137.296 140.526,130.177 138.420,123.476 Z" id="path-4" class="cls-6" fill-rule="evenodd"/>
    <path d="M48.550,199.891 C48.159,199.891 47.762,199.827 47.371,199.692 C27.631,192.840 12.781,176.672 7.648,156.442 C7.161,154.519 8.323,152.566 10.246,152.077 C12.183,151.591 14.124,152.755 14.612,154.675 C19.148,172.556 32.275,186.847 49.728,192.903 C51.602,193.554 52.595,195.601 51.944,197.477 C51.428,198.960 50.037,199.891 48.550,199.891 Z" id="path-5" class="cls-7" fill-rule="evenodd"/>
    <path d="M116.310,90.397 C108.396,83.492 98.981,78.233 88.480,75.324 C88.480,75.324 88.480,38.761 88.480,38.761 C88.480,38.761 98.170,38.761 98.170,38.761 C100.858,38.761 103.015,36.596 103.015,33.917 C103.015,31.239 100.858,29.072 98.170,29.072 C98.170,29.072 82.495,29.072 82.495,29.072 C85.182,29.072 87.340,31.239 87.340,33.917 C87.340,36.596 85.182,38.761 82.495,38.761 C82.495,38.761 72.805,38.761 72.805,38.761 C72.805,38.761 72.805,75.324 72.805,75.324 C83.306,78.233 92.720,83.492 100.635,90.397 C116.137,103.392 126.010,122.882 126.010,144.693 C126.010,181.167 98.438,211.175 63.004,215.079 C65.580,215.362 68.190,215.535 70.842,215.535 C109.968,215.535 141.686,183.819 141.686,144.693 C141.686,122.882 131.813,103.392 116.310,90.397 Z" id="path-6" class="cls-4" fill-rule="evenodd"/>
    <path d="M138.420,123.476 C130.167,125.731 121.931,126.706 113.746,126.706 C98.927,126.706 84.288,123.848 69.914,121.029 C47.524,116.643 26.246,112.645 5.014,118.710 C4.861,119.094 4.752,119.499 4.606,119.885 C20.820,118.513 37.207,121.611 54.239,124.947 C68.612,127.767 83.251,130.624 98.070,130.624 C106.256,130.624 114.492,129.649 122.745,127.395 C124.851,134.096 126.010,141.214 126.010,148.612 C126.010,178.963 106.887,204.781 80.062,214.868 C114.821,210.340 141.686,180.687 141.686,144.693 C141.686,137.295 140.526,130.177 138.420,123.476 Z" id="path-7" class="cls-4" fill-rule="evenodd"/>
    <path d="M29.823,109.890 C28.152,109.890 26.639,108.716 26.276,107.040 C25.270,102.381 43.792,84.585 55.880,79.470 C55.880,79.470 55.880,54.147 55.880,54.147 C55.880,52.164 57.488,50.555 59.472,50.555 C61.456,50.555 63.065,52.164 63.065,54.147 C63.065,54.147 63.065,84.731 63.065,84.731 C63.065,84.731 60.432,85.460 60.432,85.460 C49.456,88.501 35.343,104.503 33.194,107.535 C32.760,108.719 31.714,109.637 30.379,109.845 C30.194,109.876 30.007,109.890 29.823,109.890 Z" id="path-8" class="cls-7" fill-rule="evenodd"/>
  </g>
</svg>
